packages/katcn/src/icons/svg/open.svg

<svg width="24" height="25" viewBox="0 0 24 25" fill="none" xmlns="http://www.w3.org/2000/svg">
<path fill-rule="evenodd" clip-rule="evenodd" d="M3 6.53983C3 5.97934 3.60677 5.28809 4.44068 5.28809H8C8.61014 5.28809 9.25791 5.51654 9.64544 5.88962C9.6537 5.89757 9.66209 5.90538 9.67062 5.91304L11.196 7.28367C11.3796 7.4486 11.6176 7.53983 11.8644 7.53983H17.5593C18.2331 7.53983 18.9079 8.00123 19.0125 8.65568C19.0997 9.20105 19.6124 9.5725 20.1578 9.48535C20.7032 9.39819 21.0746 8.88544 20.9875 8.34007C20.6853 6.44907 18.9195 5.53983 17.5593 5.53983H12.2477L11.0191 4.43593C10.187 3.6432 9.01152 3.28809 8 3.28809H4.44068C2.63052 3.28809 1 4.75067 1 6.53983V18.2881C1 18.3309 1.0027 18.3732 1.00793 18.4146C0.894982 19.8608 2.04026 21.2881 3.60391 21.2881H17.3975C19.1083 21.2881 20.6694 20.2277 21.321 18.6431L22.8239 14.8874L22.8256 14.8832C23.477 13.2334 22.2217 11.2881 20.3962 11.2881H6.60253C5.53741 11.2881 4.62249 11.6953 3.87757 12.318C3.52381 12.5908 3.23188 12.9187 3 13.2931V6.53983ZM5.1486 13.8623C5.59967 13.4815 6.07755 13.2881 6.60253 13.2881H20.3962C20.5603 13.2881 20.744 13.3792 20.8764 13.5776C21.0096 13.777 21.0271 13.9907 20.9659 14.1473L20.9653 14.1487L19.4696 17.8865C19.1207 18.7301 18.2842 19.2881 17.3975 19.2881H3.60391C3.43981 19.2881 3.25609 19.1969 3.12367 18.9986C2.99052 18.7992 2.97298 18.5856 3.03413 18.429L4.53235 14.6849L4.53404 14.6806C4.67267 14.3295 4.86641 14.0784 5.1085 13.8944C5.12214 13.8841 5.13551 13.8734 5.1486 13.8623Z" fill="black"/>
</svg>

<svg xmlns="http://www.w3.org/2000/svg" fill="none" viewBox="0 0 24 25"><path fill="#000" fill-rule="evenodd" d="M3 6.54c0-.56.607-1.252 1.44-1.252H8c.61 0 1.258.229 1.645.602l.026.023 1.525 1.37a1 1 0 0 0 .668.257h5.695c.674 0 1.349.461 1.453 1.116a1 1 0 0 0 1.976-.316c-.303-1.89-2.068-2.8-3.429-2.8h-5.311l-1.229-1.104C10.187 3.643 9.012 3.288 8 3.288H4.44C2.63 3.288 1 4.751 1 6.54v11.748q0 .064.008.127c-.113 1.446 1.032 2.873 2.596 2.873h13.794c1.71 0 3.271-1.06 3.923-2.645l1.503-3.756.002-.004c.651-1.65-.604-3.595-2.43-3.595H6.603c-1.066 0-1.98.407-2.725 1.03q-.53.411-.878.975zm2.149 7.322c.45-.38.929-.574 1.454-.574h13.793c.164 0 .348.091.48.29.134.199.151.413.09.57l-1.496 3.739a2.27 2.27 0 0 1-2.072 1.401H3.604c-.164 0-.348-.091-.48-.29-.133-.199-.151-.412-.09-.569l1.498-3.744.002-.004a1.76 1.76 0 0 1 .615-.819" clip-rule="evenodd"/></svg>
